!!!!SEGMENT: pl-kk--kk-i-389--010-007_anonim--missa-no-10-agnus.krn
!!!cenid: 17xx:2528
!!!COM: Anonim
!!!COM-rismID: pe30004985
!!!CDT:
!!!CNT:
!!!OPR: [Missa] No. 10.
!!!OTL: Agnus
!!!OMV: 007
!!!PDT:
!!!AGN: Sacred; Mass
!!!YEC: Copyright 2022 Narodowy Instytut Fryderyka Chopina (https://polishscores.org)
!!!YEM: License CC-BY-4.0 (https://creativecommons.org/licenses/by/4.0)
!!!SMS-siglum: PL-Kk
!!!SMS-shelfmark: Kk.I.389
!!!SMS-variant:
!!!SMS-altvar:
!!!SMS-shelfwork: 010-007 M
!!!NIFC-rismSourceID: 1001146182
!!!NIFC-rismChildID: 1001147254
!!!NIFC-islandoraID: pl-kk:6976
!!!URL-pdf-islandora: https://repozytorium.nifc.pl/islandora/object/pl-kk%3A6976/datastream/PDF/view
!!!URL-scan: https://polish.musicsources.pl/pl/lokalizacje/galeria/rekopisy/5999/1 @EN{Scan on Polish Music Sources Website} @PL{Skany w portalu Dziedzictwo Muzyki Polskiej w otwartym dostępie}
!!!IIIF:
!!!ONB-nifc: UWAGA: S – skan 17-18, A – 36-37, T – 55-56, B – 74-75. Części Mszy: Rorate, Kyrie, Gloria, Graduale, Sanctus, Benedictus, Agnus, Dona.
!!!AIN: 1 alto 1 bass 1 soprn 1 tenor
!!!key:
**kern	**text	**kern	**text	**kern	**text	**kern	**text
*part4	*part4	*part3	*part3	*part2	*part2	*part1	*part1
*staff4	*staff4	*staff3	*staff3	*staff2	*staff2	*staff1	*staff1
*I"Basso.	*	*I"Tenore.	*	*I"Alto.	*	*I"Soprano.	*
*I'B	*	*I'T	*	*I'A	*	*I'S	*
*ICvox	*	*ICvox	*	*ICvox	*	*ICvox	*
*Ibass	*	*Itenor	*	*Ialto	*	*Isoprn	*
*clefF4	*	*clefC4	*	*clefC3	*	*clefC1	*
*k[b-]	*	*k[b-]	*	*k[b-]	*	*k[b-]	*
*F:	*	*F:	*	*F:	*	*F:	*
*M2/2	*	*M2/2	*	*M2/2	*	*M2/2	*
*met(C.)	*	*met(C.)	*	*met(C.)	*	*met(C.)	*
=1	=1	=1	=1	=1	=1	=1	=1
*2\right	*	*	*	*	*	*all\right:global	*
!	!	!	!	!LO:TX:a:t=3.	!	!	!
2F\	A-	4.c\	A-	0r	.	4.a\	A-
.	.	8d\	.	.	.	8b-\	.
2F\	-gnus	4.B-\	-gnus	.	.	4.g\	-gnus
.	.	8c\	.	.	.	8a\	.
=2	=2	=2	=2	=2-	=2	=2	=2
2F\	De-	4.A\	De-	.	.	4.f/	De-
.	.	8c\	.	.	.	8a\	.
4F\	-i	4A\	-i	.	.	4f/	-i
4F\	qui	8A\L	qui	.	.	8f/L	qui
.	.	8B-\J	.	.	.	8g/J	.
=3	=3	=3	=3	=3	=3	=3	=3
2F\	tol-	4c\	tol-	1r	.	4a\	tol-
.	.	8qe/	.	.	.	8qcc/	.
.	.	4d\	.	.	.	4b-\	.
4F\	-lis	4B-\	-lis	.	.	4g\	-lis
.	.	8qd/	.	.	.	8qb-/	.
4F\	pec-	4c\	.	.	.	4a\	.
=4	=4	=4	=4	=4	=4	=4	=4
2F\	-ca-	4.A\	-ca-	2r	.	4.f/	-ca-
.	.	8c\	.	.	.	8a\	.
!	!	!LO:LB:g=original	!	!	!	!	!
4F\	-ta	4A\	-ta	4r	.	4f/	-ta,
4ryy	.	4A\	qui	4c\	qui	4r	.
!	!	!	!	!	!	!LO:LB:g=original	!
=5	=5	=5	=5	=5	=5	=5	=5
2r	.	1A	tol-	1c	tol-	2r	.
4r	.	.	.	.	.	4r	.
4F\	qui	.	.	.	.	4f/	qui
=6	=6	=6	=6	=6	=6	=6	=6
*	*	*	*	*2\right	*	*	*
2E\	tol-	4B-\	-lis	2c#X\	-lis	2g/	tol-
.	.	4G\	.	.	.	.	.
*	*	*2\right	*	*	*	*	*
2D\	.	2A\	pec-	2d\	pec-	2f/	.
!LO:LB:g=original	!	!	!	!	!	!	!
=7	=7	=7	=7	=7	=7	=7	=7
2.AA/	-lis	2A\	-ca-	2c#X\	-ca-	2e/	.
.	.	2d\	-ta	2d\	-ta	2f/	-lis,
4GG#X/	pec-	.	.	.	.	.	.
=8	=8	=8	=8	=8	=8	=8	=8
4AA/	-ca-	4A\	pec-	4c#X\	pec-	4e/	pec-
2AA/	-ta	2A\	-ca-	2c#\	-ca-	2e/	-ca-
4AA/	pec-	4A\	-ta	4c#\	-ta	4e/	-ta
=9	=9	=9	=9	=9	=9	=9	=9
2.D/	-ca-	2.A\	mun-	2.d\	mun-	2.f/	mun-
4C/	-ta	4A\	-di	4d\	-di	4f#X/	-di
!	!	!	!	!LO:LB:g=original	!	!	!
=10	=10	=10	=10	=10	=10	=10	=10
4BB-/	mun-	4d\	mun-	4d\	mun-	4g\	mun-
4AA/	.	4c\	.	4f#X\	.	4a\	.
*	*	*	*	*	*	*2\right	*
2GG/	-di	2B-\	-di	2g\	-di	2b-\	-di
=11	=11	=11	=11	=11	=11	=11	=11
!LO:TX:a:t=1.	!	!LO:TX:a:t=3.	!	!	!	!	!
1r	.	0r	.	8g\L	mi-	8b-\L	mi-
.	.	.	.	8a\J	.	8cc\J	.
.	.	.	.	8b-\L	-se-	8dd\L	-se-
.	.	.	.	8a\J	.	8cc\J	.
.	.	.	.	8g\L	-re-	8b-\L	-re-
.	.	.	.	8a\J	.	8cc\J	.
.	.	.	.	8f\L	-re	8a\L	-re
.	.	.	.	8g\J	.	8b-\J	.
!	!	!	!	!	!	!LO:LB:g=original	!
=12	=12	=12-	=12	=12	=12	=12	=12
8r	.	.	.	2e\	no-	2g\	no-
8C\L	mi-	.	.	.	.	.	.
8E\	.	.	.	.	.	.	.
8G\J	-se-	.	.	.	.	.	.
4c\	-re-	.	.	2e\	-bis	2g\	-bis
4C/	-re	.	.	.	.	.	.
=13	=13	=13-	=13	=13	=13	=13	=13
4r	.	1r	.	4e\	mi-	4g\	mi-
2C/	mi-	.	.	8f\L	.	8a\L	.
.	.	.	.	8g\J	.	8b-\J	.
.	.	.	.	4a\	.	4cc\	.
4C/	-se-	.	.	4g\	-se-	4b-\	-se-
!LO:LB:g=original	!	!LO:LB:g=original	!	!	!	!	!
=14	=14	=14	=14	=14	=14	=14	=14
2F\	-re-	8r	.	2f\	-re-	2a\	-re-
.	.	8F\L	mi-	.	.	.	.
.	.	8A\	.	.	.	.	.
.	.	8c\J	-se-	.	.	.	.
2F\	-re	4f\	-re-	2f\	-re	2a\	-re
.	.	4f\	-re	.	.	.	.
=15	=15	=15	=15	=15	=15	=15	=15
4r	.	4c\	mi-	4r	.	4a\	mi-
2F\	mi-	8d\L	.	2f\	mi-	8b-\L	.
.	.	8e-X\J	.	.	.	8cc\J	.
.	.	4f\	.	.	.	4dd\	.
4F\	-se-	4e-\	-se-	4f\	-se-	4cc\	-se-
!	!	!	!	!LO:LB:g=original	!	!	!
=16	=16	=16	=16	=16	=16	=16	=16
4BB-/	-re-	2d\	-re-	2f\	-re-	2b-\	-re-
8D\L	.	.	.	.	.	.	.
8F\J	.	.	.	.	.	.	.
4B-\	.	2d\	-re	2f\	-re	2b-\	-re
4BB-/	-re	.	.	.	.	.	.
=17	=17	=17	=17	=17	=17	=17	=17
2B-\	mi-	2d\	no-	8r	.	2f/	no-
.	.	.	.	8B-\L	no-	.	.
.	.	.	.	8d\	.	.	.
.	.	.	.	8f\J	.	.	.
4B-\	.	4d\	-bis	2b-\	-bis	4f/	-bis
4BB-/	-se-	4d\	qui	.	.	4f/	qui
=18	=18	=18	=18	=18	=18	=18	=18
!	!	!	!	!LO:TX:a:t=1.	!	!	!
8r	.	1d	tol-	1r	.	1b-	tol-
8GG/L	-re-	.	.	.	.	.	.
8BB-/	.	.	.	.	.	.	.
8D/J	-re	.	.	.	.	.	.
4G\	mi-	.	.	.	.	.	.
4F\	-se-	.	.	.	.	.	.
!	!	!	!	!	!	!LO:PB:g=original	!
=19	=19	=19	=19	=19	=19	=19	=19
2E\	-re-	2c\	-lis	4r	.	2b-\	-lis
.	.	.	.	4e\	tol-	.	.
!	!	!	!	!LO:SIC:o=4e\	!	!	!
2F\	-re	2c\	pec-	4f	-lis	2a\	pec-
!	!	!	!	!LO:SIC:o=4e\	!	!	!
.	.	.	.	4f	pec-	.	.
=20	=20	=20	=20	=20	=20	=20	=20
4C/	no-	4c\	-ca-	4f\	-ca-	2.g\	-ca-
4C/	-bis	4c\	-ta	4f\	-ta	.	.
!LO:LB:g=original	!	!	!	!	!	!	!
2C/	no-	2c\	mun-	2e\	mun-	.	.
.	.	.	.	.	.	8cc\L	-ta
.	.	.	.	.	.	8b-\J	.
=21	=21	=21	=21	=21	=21	=21	=21
1F	-bis	1c	-di,	1f	-di	2a\	mun-
.	.	.	.	.	.	2a;\	-di
==	==	==	==	==	==	==	==
*-	*-	*-	*-	*-	*-	*-	*-
!!!system-decoration: [(s1,s2,s3,s4)]
!!!ENC: Anastazja Marusiak
!!!END: 2023-11-13
!!!YEM: Copyright © 2023 by [Copyright Holder]
!!!ENC: Leszek Kubiak
!!!END: 2024-01-22
